Dominus_Dark_Funeral/scalable/apps/skrooge-black.svg

<svg xmlns="http://www.w3.org/2000/svg" xmlns:xlink="http://www.w3.org/1999/xlink" width="48" height="48" viewBox="0 0 12.7 12.7"><defs><linearGradient id="d"><stop offset="0" stop-color="#d3bc5f"/><stop offset="1" stop-color="#ccc"/></linearGradient><linearGradient id="c"><stop offset="0"/><stop offset=".43" stop-color="#b3b3b3"/><stop offset=".83" stop-color="#4d4d4d"/><stop offset="1"/></linearGradient><linearGradient id="b"><stop offset="0"/><stop offset="1" stop-opacity="0"/></linearGradient><linearGradient id="a"><stop offset="0"/><stop offset="1" stop-opacity="0"/></linearGradient><linearGradient xlink:href="#a" id="g" x1=".92" y1="1.86" x2="13.51" y2="9.44" gradientUnits="userSpaceOnUse"/><linearGradient xlink:href="#b" id="f" gradientUnits="userSpaceOnUse" x1="1.73" y1="1.93" x2="14.32" y2="9.58"/><linearGradient xlink:href="#c" id="e" x1="1.28" y1=".94" x2="9.67" y2="12.17" gradientUnits="userSpaceOnUse"/><linearGradient xlink:href="#d" id="h" x1="16.09" y1="5.11" x2="27.07" y2="35.43" gradientUnits="userSpaceOnUse" gradientTransform="scale(.26458)"/></defs><path d="M6.35.1C4.81.1 3.57.38 2.66.96A3.67 3.67 0 0 0 1 4.22c0 1.91 1.54 4.47 2.01 5.2.54.85 1.13 1.61 1.65 2.16.68.7 1.21 1.03 1.69 1.03s1.01-.33 1.69-1.03a15.2 15.2 0 0 0 1.65-2.15c.47-.74 2-3.3 2-5.21 0-1.42-.57-2.54-1.65-3.25A6.75 6.75 0 0 0 6.35.1z" fill="url(#e)"/><rect width="7.63" height="7.63" x="-9.11" y="-10.17" rx="3.82" ry="3.82" transform="matrix(0 -1 -1 0 0 0)" fill="#333"/><path d="M7.46 12.07c.2-.15.37-.27.58-.49a15.2 15.2 0 0 0 1.65-2.15c.23-.37.73-1.2 1.18-2.17.22-.48.42-1 .57-1.52.09-.29.1-.56.14-.84l-2.6-2.59-1.82-.59-2.22.1L3 3.48 2.7 5.54l.73 2.5z" opacity=".68" fill="url(#f)"/><path d="M6.57 9.09a3.8 3.8 0 0 0 3.52-3.02c.03-.14.03-.29.04-.43L8.25 3.77l-2-.64-1.5.67-.4.9-1.05.29.69.91H3.6z" fill="url(#g)" opacity=".57"/><path d="M6.35 1.32a3.96 3.96 0 1 0 0 7.94 3.96 3.96 0 1 0 0-7.94zm0 .61A3.34 3.34 0 0 1 9.71 5.3a3.34 3.34 0 0 1-3.36 3.36 3.34 3.34 0 0 1-3.36-3.36 3.34 3.34 0 0 1 3.36-3.36zm0 .92a2.44 2.44 0 0 0-2.26 1.53H3.6l-.3.6h.63a2.44 2.44 0 0 0-.02.31l-.3.61h.38a2.44 2.44 0 0 0 2.36 1.83 2.44 2.44 0 0 0 1.9-.91h-.89a1.83 1.83 0 0 1-1.01.3A1.83 1.83 0 0 1 4.63 5.9h2.03l.3-.6H4.52a1.83 1.83 0 0 1 .03-.31h2.41l.3-.61h-2.5a1.83 1.83 0 0 1 1.59-.92 1.83 1.83 0 0 1 1.01.3h.9a2.44 2.44 0 0 0-1.91-.91z" fill="url(#h)"/><path d="M1.04 3.9c0 .1-.04.2-.04.32 0 1.91 1.54 4.47 2.01 5.2.54.85 1.13 1.61 1.65 2.16.68.7 1.21 1.03 1.69 1.03s1.01-.33 1.69-1.03a15.2 15.2 0 0 0 1.65-2.15c.47-.74 2-3.3 2-5.21 0-.11-.02-.21-.03-.32a5.5 5.5 0 0 1-.21 1.3c-.15.53-.36 1.05-.58 1.53-.44.97-.95 1.8-1.18 2.17a15.2 15.2 0 0 1-1.65 2.15 4.9 4.9 0 0 1-.92.78c-.28.17-.53.25-.77.25s-.5-.08-.77-.25a4.76 4.76 0 0 1-.92-.78A14.41 14.41 0 0 1 3.01 8.9a19.2 19.2 0 0 1-1.18-2.17c-.22-.48-.43-1-.58-1.52a5.66 5.66 0 0 1-.21-1.31z" opacity=".5"/></svg>

<?xml version="1.0" encoding="UTF-8" standalone="no"?>
<svg
   xmlns:dc="http://purl.org/dc/elements/1.1/"
   xmlns:cc="http://creativecommons.org/ns#"
   xmlns:rdf="http://www.w3.org/1999/02/22-rdf-syntax-ns#"
   xmlns:svg="http://www.w3.org/2000/svg"
   xmlns="http://www.w3.org/2000/svg"
   xmlns:xlink="http://www.w3.org/1999/xlink"
   xmlns:sodipodi="http://sodipodi.sourceforge.net/DTD/sodipodi-0.dtd"
   xmlns:inkscape="http://www.inkscape.org/namespaces/inkscape"
   width="48"
   height="48"
   viewBox="0 0 12.7 12.7"
   version="1.1"
   id="svg44"
   sodipodi:docname="skrooge-black.svg"
   inkscape:version="0.92.4 (5da689c313, 2019-01-14)">
  <metadata
     id="metadata48">
    <rdf:RDF>
      <cc:Work
         rdf:about="">
        <dc:format>image/svg+xml</dc:format>
        <dc:type
           rdf:resource="http://purl.org/dc/dcmitype/StillImage" />
        <dc:title></dc:title>
      </cc:Work>
    </rdf:RDF>
  </metadata>
  <sodipodi:namedview
     pagecolor="#ffffff"
     bordercolor="#666666"
     borderopacity="1"
     objecttolerance="10"
     gridtolerance="10"
     guidetolerance="10"
     inkscape:pageopacity="0"
     inkscape:pageshadow="2"
     inkscape:window-width="1112"
     inkscape:window-height="480"
     id="namedview46"
     showgrid="false"
     inkscape:zoom="4.9166667"
     inkscape:cx="2.1355932"
     inkscape:cy="24"
     inkscape:window-x="0"
     inkscape:window-y="25"
     inkscape:window-maximized="0"
     inkscape:current-layer="svg44" />
  <defs
     id="defs30">
    <linearGradient
       id="d">
      <stop
         offset="0"
         stop-color="#d3bc5f"
         id="stop2" />
      <stop
         offset="1"
         stop-color="#ccc"
         id="stop4" />
    </linearGradient>
    <linearGradient
       id="c">
      <stop
         offset="0"
         id="stop7" />
      <stop
         offset=".43"
         stop-color="#b3b3b3"
         id="stop9" />
      <stop
         offset=".83"
         stop-color="#4d4d4d"
         id="stop11" />
      <stop
         offset="1"
         id="stop13" />
    </linearGradient>
    <linearGradient
       id="b">
      <stop
         offset="0"
         id="stop16" />
      <stop
         offset="1"
         stop-opacity="0"
         id="stop18" />
    </linearGradient>
    <linearGradient
       id="a">
      <stop
         offset="0"
         id="stop21" />
      <stop
         offset="1"
         stop-opacity="0"
         id="stop23" />
    </linearGradient>
    <linearGradient
       xlink:href="#a"
       id="g"
       x1=".92"
       y1="1.86"
       x2="13.51"
       y2="9.44"
       gradientUnits="userSpaceOnUse" />
    <linearGradient
       xlink:href="#b"
       id="f"
       gradientUnits="userSpaceOnUse"
       x1="1.73"
       y1="1.93"
       x2="14.32"
       y2="9.58" />
    <linearGradient
       xlink:href="#c"
       id="e"
       x1="1.28"
       y1=".94"
       x2="9.67"
       y2="12.17"
       gradientUnits="userSpaceOnUse" />
    <linearGradient
       xlink:href="#d"
       id="h"
       x1="16.09"
       y1="5.11"
       x2="27.07"
       y2="35.43"
       gradientUnits="userSpaceOnUse"
       gradientTransform="scale(0.26458)" />
  </defs>
  <path
     d="M 6.35,0.1 C 4.81,0.1 3.57,0.38 2.66,0.96 A 3.67,3.67 0 0 0 1,4.22 c 0,1.91 1.54,4.47 2.01,5.2 0.54,0.85 1.13,1.61 1.65,2.16 0.68,0.7 1.21,1.03 1.69,1.03 0.48,0 1.01,-0.33 1.69,-1.03 A 15.2,15.2 0 0 0 9.69,9.43 c 0.47,-0.74 2,-3.3 2,-5.21 0,-1.42 -0.57,-2.54 -1.65,-3.25 A 6.75,6.75 0 0 0 6.35,0.1 Z"
     id="path32"
     style="fill:url(#e)"
     inkscape:connector-curvature="0" />
  <rect
     width="7.6300001"
     height="7.6300001"
     x="-9.1099997"
     y="-10.17"
     rx="3.8199999"
     ry="3.8199999"
     transform="matrix(0,-1,-1,0,0,0)"
     id="rect34"
     style="fill:#333333" />
  <path
     d="M 7.46,12.07 C 7.66,11.92 7.83,11.8 8.04,11.58 A 15.2,15.2 0 0 0 9.69,9.43 c 0.23,-0.37 0.73,-1.2 1.18,-2.17 0.22,-0.48 0.42,-1 0.57,-1.52 0.09,-0.29 0.1,-0.56 0.14,-0.84 L 8.98,2.31 7.16,1.72 4.94,1.82 3,3.48 2.7,5.54 3.43,8.04 Z"
     id="path36"
     style="opacity:0.6800001;fill:url(#f)"
     inkscape:connector-curvature="0" />
  <path
     d="M 6.57,9.09 A 3.8,3.8 0 0 0 10.09,6.07 C 10.12,5.93 10.12,5.78 10.13,5.64 L 8.25,3.77 6.25,3.13 4.75,3.8 4.35,4.7 3.3,4.99 3.99,5.9 H 3.6 Z"
     id="path38"
     style="opacity:0.5699999;fill:url(#g)"
     inkscape:connector-curvature="0" />
  <path
     d="m 6.35,1.32 a 3.97,3.97 0 1 0 0,7.94 3.97,3.97 0 1 0 0,-7.94 z m 0,0.61 A 3.34,3.34 0 0 1 9.71,5.3 3.34,3.34 0 0 1 6.35,8.66 3.34,3.34 0 0 1 2.99,5.3 3.34,3.34 0 0 1 6.35,1.94 Z m 0,0.92 A 2.44,2.44 0 0 0 4.09,4.38 H 3.6 L 3.3,4.98 H 3.93 A 2.44,2.44 0 0 0 3.91,5.29 L 3.61,5.9 H 3.99 A 2.44,2.44 0 0 0 6.35,7.73 2.44,2.44 0 0 0 8.25,6.82 H 7.36 A 1.83,1.83 0 0 1 6.35,7.12 1.83,1.83 0 0 1 4.63,5.9 H 6.66 L 6.96,5.3 H 4.52 A 1.83,1.83 0 0 1 4.55,4.99 h 2.41 l 0.3,-0.61 h -2.5 a 1.83,1.83 0 0 1 1.59,-0.92 1.83,1.83 0 0 1 1.01,0.3 h 0.9 A 2.44,2.44 0 0 0 6.35,2.85 Z"
     id="path40"
     style="fill:url(#h)"
     inkscape:connector-curvature="0" />
  <path
     d="M 1.04,3.9 C 1.04,4 1,4.1 1,4.22 c 0,1.91 1.54,4.47 2.01,5.2 0.54,0.85 1.13,1.61 1.65,2.16 0.68,0.7 1.21,1.03 1.69,1.03 0.48,0 1.01,-0.33 1.69,-1.03 A 15.2,15.2 0 0 0 9.69,9.43 c 0.47,-0.74 2,-3.3 2,-5.21 0,-0.11 -0.02,-0.21 -0.03,-0.32 A 5.5,5.5 0 0 1 11.45,5.2 C 11.3,5.73 11.09,6.25 10.87,6.73 10.43,7.7 9.92,8.53 9.69,8.9 A 15.2,15.2 0 0 1 8.04,11.05 4.9,4.9 0 0 1 7.12,11.83 C 6.84,12 6.59,12.08 6.35,12.08 6.11,12.08 5.85,12 5.58,11.83 A 4.76,4.76 0 0 1 4.66,11.05 14.41,14.41 0 0 1 3.01,8.9 19.2,19.2 0 0 1 1.83,6.73 C 1.61,6.25 1.4,5.73 1.25,5.21 A 5.66,5.66 0 0 1 1.04,3.9 Z"
     id="path42"
     inkscape:connector-curvature="0"
     style="opacity:0.5" />
</svg>
